X: 1
T: Benton's Dream
C: by Benton Flippen
%D:1973
R: reel
S: Fiddle Hell Online 2022-3-26 handout for Fiddle Hell jam session
B: the Portland Collection 1 p.31
Z: 2022 John Chambers <jc:trillian.mit.edu>
M: C|
L: 1/8
K: Amix
z2 |\
"A"a4 aba2 | "G"g4 gag2 | "A"e3f edcB | A3B A2cB |\
"A"A2F2 EFAB | "E"=cBcB AFEF | "A"A2A2- A2AB | A6 :|
|: F2 |\
"G"G2BG AGBG | AB- BA B2D2 | G2BG AGBG | AB- BA B2B2 |\
"A"A2A2- A2AB | ceaf ecBc | A2A2- A2AB | A6 :|
